X:2
T: Lowdown Hoedown (From Larry's Book)
C:Larry Unger
M:C
K:Gdor
"Gm"G2G2BGGG|^cdcd cBAB|G2G2BGGG| "Gm"^cdcB "C#dim"e4|
"Gm"G2G2BGGG|^cdcd cBAB|GAB^c dcBd|"Eb7"^cBAB"Gm"G4:|
|:"Gm"d2G2d2G2|"F"f2fg fed^c|"Gm"d2G2d2G2|"F"fgfe "Dm"d4|
"Gm"d2G2d2G2|"F"f2fg fed^c|"Gm"defe d^cBd|"D7"^cBAB"Gm"G4:|
